icon-themes/sifr_svg/cmd/lc_mediapause.svg

<svg xmlns="http://www.w3.org/2000/svg" viewBox="0 0 24 24">
  <path
     style="fill:#555753"
     d="M 12 1 C 5.936712 1 1 5.936712 1 12 C 1 18.063288 5.936712 23 12 23 C 18.063288 23 23 18.063288 23 12 C 23 5.936712 18.063288 1 12 1 z M 12 3 C 16.982407 3 21 7.017593 21 12 C 21 16.982407 16.982407 21 12 21 C 7.017593 21 3 16.982407 3 12 C 3 7.017593 7.017593 3 12 3 z M 8 7 C 7.446 7 7 7.446 7 8 L 7 16 C 7 16.554 7.446 17 8 17 L 10 17 C 10.554 17 11 16.554 11 16 L 11 8 C 11 7.446 10.554 7 10 7 L 8 7 z M 14 7 C 13.446 7 13 7.446 13 8 L 13 16 C 13 16.554 13.446 17 14 17 L 16 17 C 16.554 17 17 16.554 17 16 L 17 8 C 17 7.446 16.554 7 16 7 L 14 7 z "
     />
</svg>

<svg viewBox="0 0 24 24" xmlns="http://www.w3.org/2000/svg"><path d="m12 1c-6.063288 0-11 4.936712-11 11s4.936712 11 11 11 11-4.936712 11-11-4.936712-11-11-11zm0 2c4.982407 0 9 4.017593 9 9s-4.017593 9-9 9-9-4.017593-9-9 4.017593-9 9-9zm-4 4c-.554 0-1 .446-1 1v8c0 .554.446 1 1 1h2c.554 0 1-.446 1-1v-8c0-.554-.446-1-1-1zm6 0c-.554 0-1 .446-1 1v8c0 .554.446 1 1 1h2c.554 0 1-.446 1-1v-8c0-.554-.446-1-1-1z" fill="#555753"/></svg>
